X: 1
T:Alnwick Castle
% Nottingham Music Database
S:Kevin Briggs
M:3/4
L:1/4
K:G
D|"G"G3/2B/2"D7"A/2F/2|"G"GAB|"C"cde|"D7"d3/2c/2B/2A/2|"G"G3/2B/2"D7"A/2F/2|\
"Em"GBd|"Am"c2B|
"D7"A2D|"G"G2"D7"F|"G"GAB|"C"cde|"D"d2(3d/2e/2f/2|"C""Em"g3/2f/2e|"G""Bm"dBd|\
"D7""Am"cB"""D7"A|
"G"G2D|"D"F3/2E/2F/2G/2|"D7"AFD|"G"G2"D7"A|"G"B2B|"D"A3/2G/2A/2B/2|"D7"cBA|\
"G"B2"D7"c|"G"d2g|
"G"d2g|"G"dcB|"C"cde|"D"A2(3d/2e/2f/2|"C""Em"g3/2f/2e|"G""Bm"dBd|\
"D7""Am"cB"""D7"A|"G"G2:|<end>
<start>
